/* XPM */
static char * stick_toggled_prelight_xpm[] = {
"24 26 4 1",
" 	c None",
".	c #202426",
"+	c #a8abb1",
"@	c #202426",
"@@@@@@@@@@@@@@@@@@@@@@@@",
"........................",
"........................",
"........................",
"........................",
"........................",
"........................",
"........................",
"........................",
"...........++...........",
".........++++++.........",
".........++++++.........",
"........++++++++........",
"........++++++++........",
".........++++++.........",
".........++++++.........",
"...........++...........",
"........................",
"........................",
"........................",
"........................",
"........................",
"........................",
"........................",
"........................",
"........................"};
